!!!OTL:
!!!ONR: No. 5
!! From Madeleine Beland,
!! "Chansons de Voyageurs, Coureurs de Bois et Forestiers"
!! Quebec: Les Presses de l'universite/ Laval, 1982
!! ISBN 2-7637-6942-X
**kern
*clefG2
*k[f#]
*M2/4
8d
8g
=
4.b
8b
=
8a
8b
(8cc%
16a)
16a
=
(4.b-
16a
16g)
=
8g
8r
qg
4b-
=
4.a
8f#
=
8g
8a
8b
8a
=
8g
8r
8d
8g
=
4.b
8b
=
8a
8b
8cc
8a
=
(4.b-
16a
16g)
=
8g
8r
qg
4b-
=
4.a
8f#
=
8g
8a
8.b
16a
=
8g
8r
8.g
16g
=
4.a
8a
=
8a
8b
8.g
16a
=
(4.b
16a
16g)
=
8g
8r
4d
=
4.cc
8cc
=
8b
8a
8dd
8dd
=
8b
8r
8d
8g
=
4b
8r
8dd
=
8cc
8b
8.a
16g
=
2g
=
8f#
8r
4a
=
8g
8r
qg
4b-
=
8a
8b
(8cc%
16f#)
16f#
=
4g;
==
*-
